flaticon/transport/police-car-1.svg

<svg xmlns="http://www.w3.org/2000/svg" width="32" height="32" viewBox="0 0 24 24">
    <path d="M4.800781 18.402344C4.359375 18.402344 4 18.761719 4 19.199219 4 19.640625 4.359375 20 4.800781 20 5.238281 20 5.601562 19.640625 5.601562 19.199219 5.601562 18.761719 5.238281 18.402344 4.800781 18.402344zM19.199219 18.402344C18.761719 18.402344 18.398438 18.761719 18.398438 19.199219 18.398438 19.640625 18.761719 20 19.199219 20 19.640625 20 20 19.640625 20 19.199219 20 18.761719 19.640625 18.402344 19.199219 18.402344zM19.199219 18.402344"/>
    <path d="M 23 13.601562 L 21.359375 13.601562 C 20.199219 13.601562 19.078125 12.960938 18.441406 11.960938 L 17.039062 9.722656 C 16.558594 8.921875 15.640625 8.402344 14.679688 8.402344 L 12.398438 8.402344 L 12.398438 8 C 12.398438 6.882812 11.519531 6 10.398438 6 C 9.28125 6 8.398438 6.882812 8.398438 8 L 8.398438 8.402344 L 6.519531 8.402344 C 5.558594 8.402344 4.679688 8.921875 4.160156 9.722656 L 2.160156 12.960938 C 1.921875 13.359375 1.480469 13.601562 1 13.601562 C 0.71875 13.601562 0.480469 13.722656 0.28125 13.882812 C 0.121094 14.082031 0 14.320312 0 14.601562 L 0 18.199219 C 0 18.960938 0.640625 19.601562 1.398438 19.601562 L 2.027344 19.601562 C 2.21875 20.96875 3.375 22 4.800781 22 C 6.222656 22 7.378906 20.96875 7.570312 19.601562 L 16.429688 19.601562 C 16.621094 20.96875 17.777344 22 19.199219 22 C 20.625 22 21.78125 20.96875 21.972656 19.601562 L 22.398438 19.601562 C 23.28125 19.601562 24 18.882812 24 18 L 24 14.601562 C 24 14.039062 23.558594 13.601562 23 13.601562 Z M 6.398438 12.402344 L 6.398438 10.800781 L 11.601562 10.800781 L 11.601562 12.402344 Z M 12.398438 10.800781 L 16.695312 10.800781 L 17.695312 12.402344 L 12.398438 12.402344 Z M 9.199219 8 C 9.199219 7.320312 9.71875 6.800781 10.398438 6.800781 C 11.078125 6.800781 11.601562 7.320312 11.601562 8 L 11.601562 8.402344 L 9.199219 8.402344 Z M 4.800781 21.199219 C 3.679688 21.199219 2.800781 20.320312 2.800781 19.199219 C 2.800781 18.082031 3.679688 17.199219 4.800781 17.199219 C 5.921875 17.199219 6.800781 18.082031 6.800781 19.199219 C 6.800781 20.320312 5.921875 21.199219 4.800781 21.199219 Z M 19.199219 21.199219 C 18.078125 21.199219 17.199219 20.320312 17.199219 19.199219 C 17.199219 18.082031 18.078125 17.199219 19.199219 17.199219 C 20.320312 17.199219 21.199219 18.082031 21.199219 19.199219 C 21.199219 20.320312 20.320312 21.199219 19.199219 21.199219 Z M 22.359375 18.800781 L 21.972656 18.800781 C 21.78125 17.433594 20.625 16.402344 19.199219 16.402344 C 19.195312 16.402344 19.1875 16.402344 19.179688 16.402344 C 19.171875 16.402344 19.167969 16.402344 19.160156 16.402344 C 17.761719 16.402344 16.601562 17.441406 16.398438 18.800781 L 7.570312 18.800781 C 7.394531 17.519531 6.363281 16.53125 5.0625 16.414062 C 5.054688 16.414062 5.042969 16.410156 5.035156 16.410156 C 5 16.410156 4.96875 16.40625 4.933594 16.402344 C 4.890625 16.402344 4.84375 16.402344 4.800781 16.402344 C 4.753906 16.402344 4.710938 16.402344 4.664062 16.402344 C 4.632812 16.40625 4.597656 16.410156 4.566406 16.410156 C 4.554688 16.410156 4.546875 16.414062 4.539062 16.414062 C 3.234375 16.53125 2.207031 17.519531 2.027344 18.800781 L 1.398438 18.800781 C 1.078125 18.800781 0.800781 18.519531 0.800781 18.199219 L 0.800781 16 L 2 16 C 2.238281 16 2.398438 15.839844 2.398438 15.601562 C 2.398438 15.359375 2.238281 15.199219 2 15.199219 L 0.800781 15.199219 L 0.800781 14.601562 C 0.800781 14.5625 0.800781 14.519531 0.878906 14.480469 C 0.921875 14.441406 0.960938 14.402344 1.039062 14.402344 C 1.761719 14.402344 2.480469 14 2.839844 13.402344 L 4.839844 10.160156 C 5.199219 9.5625 5.839844 9.199219 6.519531 9.199219 L 14.679688 9.199219 C 15.300781 9.199219 15.886719 9.5 16.226562 10.039062 L 6.320312 10.039062 C 5.921875 10.039062 5.601562 10.359375 5.601562 10.761719 L 5.601562 12.480469 C 5.601562 12.882812 5.921875 13.199219 6.320312 13.199219 L 18.316406 13.199219 C 19.097656 13.984375 20.171875 14.441406 21.320312 14.441406 L 22.960938 14.441406 C 23.078125 14.441406 23.160156 14.519531 23.160156 14.640625 L 23.160156 15.601562 L 22 15.601562 C 21.761719 15.601562 21.601562 15.761719 21.601562 16 C 21.601562 16.242188 21.761719 16.402344 22 16.402344 L 23.160156 16.402344 L 23.160156 18 C 23.160156 18.441406 22.800781 18.800781 22.359375 18.800781 Z M 22.359375 18.800781"/>
    <path d="M14 14.402344L12 14.402344C11.761719 14.402344 11.601562 14.5625 11.601562 14.800781 11.601562 15.039062 11.761719 15.199219 12 15.199219L13.601562 15.199219 13.601562 15.601562C13.601562 15.839844 13.761719 16 14 16 14.238281 16 14.398438 15.839844 14.398438 15.601562L14.398438 14.800781C14.398438 14.5625 14.238281 14.402344 14 14.402344zM10.199219 3.960938C10.207031 3.964844 10.210938 3.964844 10.214844 3.96875 10.367188 4.105469 10.398438 4.203125 10.398438 4.242188 10.398438 4.28125 10.359375 4.359375 10.199219 4.441406 10 4.5625 9.960938 4.800781 10.039062 5 10.121094 5.121094 10.28125 5.199219 10.398438 5.199219 10.480469 5.199219 10.558594 5.199219 10.601562 5.160156 11.078125 4.839844 11.199219 4.519531 11.199219 4.28125 11.199219 4.050781 11.125 3.679688 10.707031 3.332031 10.679688 3.296875 10.644531 3.265625 10.601562 3.242188 10.441406 3.160156 10.398438 3.082031 10.398438 3.039062 10.398438 3 10.441406 2.882812 10.640625 2.722656 10.839844 2.601562 10.839844 2.320312 10.71875 2.160156 10.601562 1.960938 10.320312 1.960938 10.160156 2.082031 9.679688 2.480469 9.601562 2.882812 9.601562 3.121094 9.601562 3.359375 9.71875 3.679688 10.199219 3.960938zM8.441406 5.402344C8.519531 5.519531 8.679688 5.601562 8.800781 5.601562 8.878906 5.601562 8.960938 5.601562 9 5.5625 9.199219 5.441406 9.238281 5.199219 9.160156 5L7.960938 3C7.839844 2.800781 7.601562 2.761719 7.398438 2.839844 7.199219 2.960938 7.160156 3.199219 7.238281 3.402344zM11.800781 5.5625C11.839844 5.601562 11.921875 5.601562 12 5.601562 12.121094 5.601562 12.28125 5.519531 12.359375 5.402344L13.558594 3.402344C13.640625 3.199219 13.601562 2.960938 13.398438 2.839844 13.199219 2.761719 12.960938 2.800781 12.839844 3L11.640625 5C11.558594 5.199219 11.601562 5.441406 11.800781 5.5625zM11.800781 5.5625"/>
</svg>

<svg xmlns="http://www.w3.org/2000/svg" width="32" height="32" viewBox="0 0 24 24">
    <path d="M4.8 18.402c-.44 0-.8.36-.8.797 0 .442.36.801.8.801.438 0 .802-.36.802-.8a.804.804 0 0 0-.801-.798zm0 0M19.2 18.402c-.438 0-.802.36-.802.797 0 .442.364.801.801.801.442 0 .801-.36.801-.8a.801.801 0 0 0-.8-.798zm0 0"/>
    <path d="M23 13.602h-1.64c-1.16 0-2.282-.641-2.919-1.641L17.04 9.723a2.785 2.785 0 0 0-2.36-1.32H12.4V8c0-1.117-.88-2-2-2-1.118 0-2 .883-2 2v.402h-1.88c-.96 0-1.84.52-2.359 1.32l-2 3.239c-.238.398-.68.64-1.16.64-.281 0-.52.122-.719.282-.16.199-.281.437-.281.719v3.597c0 .762.64 1.403 1.398 1.403h.63A2.779 2.779 0 0 0 4.8 22a2.778 2.778 0 0 0 2.77-2.398h8.859A2.778 2.778 0 0 0 19.2 22a2.779 2.779 0 0 0 2.773-2.398h.425c.883 0 1.602-.72 1.602-1.602v-3.398a.99.99 0 0 0-1-1zm-16.602-1.2v-1.601h5.204v1.601zm6-1.601h4.297l1 1.601h-5.297zM9.2 8c0-.68.52-1.2 1.2-1.2.68 0 1.203.52 1.203 1.2v.402H9.199zM4.801 21.2c-1.121 0-2-.88-2-2 0-1.118.879-2 2-2 1.12 0 2 .882 2 2 0 1.12-.88 2-2 2zm14.398 0c-1.12 0-2-.88-2-2 0-1.118.88-2 2-2 1.121 0 2 .882 2 2 0 1.12-.879 2-2 2zm3.16-2.4h-.386a2.779 2.779 0 0 0-2.774-2.398h-.039c-1.398 0-2.558 1.04-2.762 2.399H7.57a2.772 2.772 0 0 0-2.508-2.387c-.007 0-.019-.004-.027-.004-.035 0-.066-.004-.101-.008h-.27a.822.822 0 0 1-.098.008c-.011 0-.02.004-.027.004a2.776 2.776 0 0 0-2.512 2.387h-.629a.614.614 0 0 1-.597-.602V16H2c.238 0 .398-.16.398-.398 0-.243-.16-.403-.398-.403H.8v-.597c0-.04 0-.082.079-.122.043-.039.082-.078.16-.078.723 0 1.441-.402 1.8-1l2-3.242c.36-.598 1-.96 1.68-.96h8.16c.622 0 1.208.3 1.548.84H6.32a.718.718 0 0 0-.718.722v1.718c0 .403.32.72.718.72h11.996a4.23 4.23 0 0 0 3.004 1.241h1.64c.118 0 .2.079.2.2v.96H22c-.238 0-.398.16-.398.399 0 .242.16.402.398.402h1.16V18c0 .441-.36.8-.8.8zm0 0"/>
    <path d="M14 14.402h-2c-.238 0-.398.16-.398.399 0 .238.16.398.398.398h1.602v.403c0 .238.16.398.398.398.238 0 .398-.16.398-.398V14.8c0-.239-.16-.399-.398-.399zm0 0M10.2 3.96l.015.009c.152.136.183.234.183.273 0 .04-.039.117-.199.2-.199.12-.238.359-.16.558a.48.48 0 0 0 .36.2c.081 0 .16 0 .203-.04.476-.32.597-.64.597-.879 0-.23-.074-.601-.492-.949a.34.34 0 0 0-.105-.09c-.16-.082-.204-.16-.204-.203 0-.039.043-.156.243-.316.199-.121.199-.403.078-.563-.117-.2-.399-.2-.559-.078-.48.398-.558.8-.558 1.04 0 .237.117.558.597.839zm0 0M8.441 5.402c.079.118.239.2.36.2.078 0 .16 0 .199-.04.2-.12.238-.363.16-.562l-1.2-2c-.12-.2-.358-.238-.562-.16-.199.12-.238.36-.16.562zm0 0M11.8 5.563c.04.039.122.039.2.039a.479.479 0 0 0 .36-.2l1.199-2c.082-.203.043-.441-.16-.562-.2-.078-.438-.04-.56.16l-1.198 2c-.082.2-.04.441.16.563zm0 0"/>
</svg>
